packages/icons/src/svg/logo.svg

<svg xmlns="http://www.w3.org/2000/svg" viewBox="0 0 132 33">
  <path d="M111.74625,11.570295 C112.19175,12.543795 112.37325,13.575045 112.37325,14.639295 C112.3815,18.607545 112.3815,22.575795 112.37325,26.552295 C112.37325,26.651295 112.365,26.750295 112.3485,26.882295 L108.51225,26.882295 L108.51225,26.420295 C108.51225,22.889295 108.5205,19.366545 108.49575,15.835545 C108.4875,15.208545 108.38025,14.573295 108.207,13.971045 C107.80275,12.502545 106.656,11.949795 105.22875,12.081795 C103.57875,12.246795 102.2505,13.104795 101.013,14.127795 C100.914,14.218545 100.87275,14.433045 100.87275,14.598045 C100.8645,18.516795 100.8645,22.435545 100.8645,26.362545 L100.8645,26.874045 L97.02,26.874045 L97.02,9.136545 L100.52625,9.136545 L100.52625,11.380545 C100.6995,11.240295 100.8315,11.149545 100.95525,11.058795 C102.40725,9.953295 103.95825,9.045795 105.7815,8.773545 C108.19875,8.410545 110.64075,9.111795 111.74625,11.570295 Z M49.749975,23.631795 C49.939725,23.541045 50.129475,23.442045 50.269725,23.367795 C50.616225,24.283545 50.954475,25.182795 51.325725,26.181045 C50.847225,26.370795 50.277975,26.651295 49.683975,26.832795 C48.058725,27.327795 46.408725,27.534045 44.758725,26.981295 C43.191225,26.453295 42.357975,25.306545 42.093975,23.714295 C42.019725,23.301795 42.019725,22.881045 42.019725,22.460295 C42.011475,16.809045 42.019725,11.166045 42.019725,5.514795 L42.019725,5.019795 C43.298475,4.623795 44.552475,4.236045 45.872475,3.823545 L45.872475,4.318545 C45.872475,5.787045 45.880725,7.263795 45.872475,8.732295 C45.864225,9.029295 45.954975,9.128295 46.260225,9.120045 C47.761725,9.103545 49.254975,9.111795 50.748225,9.111795 L51.218475,9.111795 C51.177225,9.260295 51.160725,9.367545 51.127725,9.474795 C50.880225,10.266795 50.607975,11.067045 50.376975,11.867295 C50.294475,12.139545 50.170725,12.205545 49.906725,12.205545 C48.718725,12.189045 47.538975,12.197295 46.359225,12.197295 L45.897225,12.197295 C45.888975,12.370545 45.872475,12.519045 45.872475,12.667545 C45.872475,15.703545 45.872475,18.739545 45.880725,21.767295 C45.880725,22.146795 45.930225,22.534545 46.020975,22.897545 C46.202475,23.689545 46.738725,24.093795 47.547225,24.126795 C48.322725,24.143295 49.056975,23.970045 49.749975,23.631795 Z M77.2959,23.71182 C77.6754,24.69357 78.34365,25.46907 79.0449,26.22807 C79.05315,26.24457 79.05315,26.27757 79.08615,26.40132 C78.4509,26.58282 77.81565,26.80557 77.17215,26.92932 C76.01715,27.16032 74.8374,27.30057 73.6659,27.07782 C71.7849,26.71482 70.7619,25.47732 70.7289,23.56332 C70.7124,22.36707 70.7289,21.17082 70.7289,19.98282 C70.72065,14.04282 70.7289,8.10282 70.7124,2.16282 C70.7124,1.79157 70.83615,1.64307 71.1744,1.52757 C72.1644,1.18932 73.14615,0.80982 74.13615,0.44682 C74.26815,0.39732 74.3919,0.36432 74.59815,0.29832 L74.59815,0.85107 L74.59815,22.01232 C74.59815,22.26807 74.6229,22.52382 74.66415,22.77132 C74.77965,23.50557 75.3324,23.89332 76.06665,23.77782 C76.36365,23.72832 76.6524,23.64582 76.95765,23.60457 C77.07315,23.59632 77.27115,23.63757 77.2959,23.71182 Z M127.238925,17.37912 C127.238925,18.95487 127.230675,20.52237 127.238925,22.09812 C127.247175,22.37862 127.148175,22.56837 126.941925,22.74162 C125.984925,23.53362 124.928925,24.11937 123.658425,24.19362 C121.868175,24.29262 120.605925,23.43462 119.772675,21.90837 C119.021925,20.56362 118.898175,19.09512 119.021925,17.59362 C119.129175,16.34787 119.434425,15.17637 120.193425,14.15337 C121.142175,12.84987 122.453925,12.17337 124.029675,11.96712 C124.970175,11.85162 125.877675,11.95062 126.793425,12.11562 C127.123425,12.18162 127.247175,12.31362 127.247175,12.66012 C127.222425,14.23587 127.238925,15.81162 127.238925,17.37912 Z M131.108175,20.95137 L131.108175,0.76362 L131.108175,0.28512 C129.887175,0.72237 128.748675,1.15962 127.585425,1.56387 C127.313175,1.66287 127.230675,1.79487 127.230675,2.08362 C127.238925,4.18737 127.238925,6.29937 127.238925,8.40312 L127.238925,8.90637 C127.065675,8.88987 126.974925,8.88987 126.875925,8.87337 C125.564175,8.64237 124.252425,8.60112 122.940675,8.80737 C120.333675,9.21162 118.196925,10.41612 116.687175,12.60237 C115.581675,14.17812 115.094925,15.95187 115.037175,17.85762 C114.979425,19.82937 115.268175,21.73512 116.216925,23.48412 C117.487425,25.82712 119.434425,27.18837 122.165175,27.28737 C124.062675,27.34512 125.696175,26.65212 127.123425,25.42287 C127.230675,25.33212 127.337925,25.24962 127.478175,25.12587 C127.676175,25.65387 127.849425,26.12412 128.006175,26.60262 C128.080425,26.83362 128.187675,26.91612 128.443425,26.90787 C129.524175,26.89962 130.621425,26.90787 131.710425,26.89962 C131.792925,26.89962 131.875425,26.89137 131.999175,26.87487 C131.058675,24.96912 131.108175,22.95612 131.108175,20.95137 Z M63.631425,22.229295 C63.631425,22.369545 63.573675,22.542795 63.482925,22.625295 C62.369175,23.607045 61.098675,24.267045 59.564175,24.209295 C57.031425,24.118545 56.429175,21.899295 57.023175,20.340045 C57.344925,19.498545 58.029675,19.069545 58.846425,18.863295 C59.448675,18.714795 60.067425,18.632295 60.686175,18.582795 C61.643175,18.508545 62.608425,18.492045 63.639675,18.450795 L63.639675,20.249295 C63.639675,20.909295 63.647925,21.569295 63.631425,22.229295 Z M67.517175,21.849795 C67.508925,19.638795 67.517175,17.427795 67.508925,15.216795 C67.508925,14.713545 67.475925,14.210295 67.426425,13.707045 C67.170675,11.322795 65.751675,9.631545 63.433425,9.029295 C60.950175,8.385795 58.491675,8.625045 56.099175,9.458295 C55.364925,9.714045 54.663675,10.077045 53.929425,10.390545 C54.407925,11.306295 54.845175,12.131295 55.290675,12.997545 C55.463925,12.906795 55.587675,12.849045 55.711425,12.783045 C57.311925,11.974545 58.994925,11.553795 60.809925,11.743545 C62.237175,11.892045 63.243675,12.717045 63.524175,14.061795 C63.631425,14.540295 63.606675,15.043545 63.639675,15.530295 C63.656175,15.761295 63.540675,15.810795 63.342675,15.810795 C62.798175,15.827295 62.253675,15.860295 61.709175,15.868545 C60.273675,15.901545 58.846425,15.934545 57.435675,16.272795 C54.440925,16.998795 52.856925,18.962295 52.898175,21.899295 C52.947675,24.877545 55.216425,27.171045 58.211175,27.286545 C60.273675,27.377295 62.047425,26.733795 63.581925,25.380795 C63.672675,25.298295 63.779925,25.232295 63.895425,25.141545 C64.019175,25.471545 64.126425,25.752045 64.225425,26.040795 C64.530675,26.907045 64.530675,26.907045 65.438175,26.907045 L68.358675,26.907045 C68.350425,26.832795 68.350425,26.791545 68.333925,26.758545 C67.607925,25.191045 67.517175,23.532795 67.517175,21.849795 Z M82.878675,16.17462 C82.581675,13.98012 84.404925,11.75262 86.558175,11.69487 C87.704925,11.65362 88.670175,12.07437 89.371425,13.01487 C90.064425,13.93887 90.303675,15.00312 90.369675,16.17462 L82.878675,16.17462 Z M87.267675,8.69187 C84.239925,8.47737 81.459675,9.93762 80.114925,12.67662 C78.613425,15.72087 78.506175,18.88062 79.636425,22.04862 C80.576925,24.67212 82.457925,26.33862 85.180425,26.99037 C87.506925,27.54312 89.792175,27.36162 92.019675,26.54487 C92.646675,26.31387 93.232425,25.99212 93.859425,25.70337 C93.446925,24.75462 93.067425,23.89662 92.679675,23.01387 C92.531175,23.08812 92.423925,23.13762 92.324925,23.19537 C90.889425,23.92962 89.354925,24.25962 87.737925,24.19362 C85.667175,24.10287 83.951175,22.89012 83.233425,20.95137 C83.002425,20.32437 82.853925,19.67262 82.895175,18.97962 L94.288425,18.97962 C94.304925,18.88062 94.321425,18.81462 94.321425,18.75687 C94.354425,17.32962 94.280175,15.91887 93.925425,14.52462 C93.075675,11.17512 90.815175,8.93112 87.267675,8.69187 Z M22.180125,29.601495 C22.279125,30.244995 22.105875,30.880245 21.718125,31.399995 C21.322125,31.919745 20.761125,32.257995 20.117625,32.348745 C19.474125,32.431245 18.838875,32.266245 18.310875,31.878495 C17.246625,31.069995 17.032125,29.543745 17.840625,28.479495 C18.228375,27.959745 18.797625,27.621495 19.441125,27.538995 C19.556625,27.522495 19.672125,27.514245 19.787625,27.514245 C20.307375,27.514245 20.818875,27.679245 21.239625,28.000995 C21.759375,28.396995 22.089375,28.957995 22.180125,29.601495 Z M4.822125,4.463745 C4.426125,4.983495 3.848625,5.313495 3.213375,5.404245 C2.569875,5.494995 1.934625,5.329995 1.406625,4.942245 C0.350625,4.133745 0.127875,2.607495 0.936375,1.543245 C1.332375,1.023495 1.893375,0.685245 2.536875,0.594495 C2.652375,0.577995 2.759625,0.569745 2.883375,0.569745 C3.411375,0.569745 3.914625,0.742995 4.335375,1.064745 C4.855125,1.452495 5.185125,2.021745 5.275875,2.665245 C5.374875,3.308745 5.201625,3.943995 4.822125,4.463745 Z M30.314625,10.040745 C29.068875,10.040745 27.922125,10.453245 26.998125,11.154495 L20.026875,2.607495 C20.051625,2.582745 20.076375,2.557995 20.092875,2.524995 C20.538375,1.939245 20.422875,1.105995 19.837125,0.668745 C19.251375,0.223245 18.418125,0.346995 17.972625,0.924495 C17.543625,1.510245 17.650875,2.343495 18.236625,2.788995 C18.665625,3.110745 19.234875,3.135495 19.672125,2.887995 L26.651625,11.434995 C26.140125,11.888745 25.719375,12.433245 25.405875,13.043745 L5.589375,3.943995 C5.746125,3.514995 5.795625,3.061245 5.729625,2.607495 C5.614125,1.840245 5.218125,1.163745 4.607625,0.709995 C3.997125,0.239745 3.238125,0.041745 2.470875,0.148995 C1.720125,0.256245 1.035375,0.652245 0.581625,1.270995 C-0.375375,2.533245 -0.119625,4.339995 1.142625,5.296995 C1.645875,5.676495 2.248125,5.882745 2.866875,5.882745 C3.007125,5.882745 3.139125,5.874495 3.271125,5.849745 C4.038375,5.742495 4.714875,5.346495 5.168625,4.735995 C5.259375,4.612245 5.341875,4.488495 5.416125,4.348245 L25.207875,13.447995 C24.968625,14.041995 24.820125,14.677245 24.787125,15.353745 L7.973625,15.353745 C7.915875,14.891745 7.684875,14.462745 7.280625,14.157495 C6.505125,13.571745 5.383125,13.728495 4.797375,14.503995 C4.195125,15.287745 4.360125,16.393245 5.143875,16.978995 C5.919375,17.572995 7.041375,17.416245 7.635375,16.632495 C7.825125,16.376745 7.932375,16.096245 7.973625,15.799245 L24.795375,15.799245 C24.820125,16.525245 24.993375,17.209995 25.273875,17.836995 L21.008625,19.948995 C20.827125,19.693245 20.563125,19.503495 20.233125,19.437495 C19.523625,19.272495 18.814125,19.717995 18.640875,20.435745 C18.484125,21.145245 18.929625,21.862995 19.647375,22.019745 C20.356875,22.184745 21.066375,21.730995 21.239625,21.021495 C21.289125,20.790495 21.280875,20.559495 21.214875,20.344995 L25.471875,18.241245 C25.834875,18.901245 26.329875,19.470495 26.915625,19.932495 L21.379875,27.555495 C20.794125,27.159495 20.092875,26.994495 19.375125,27.093495 C18.616125,27.192495 17.939625,27.588495 17.485875,28.207245 C16.520625,29.469495 16.784625,31.284495 18.046875,32.233245 C18.558375,32.620995 19.152375,32.818995 19.771125,32.818995 C19.911375,32.818995 20.043375,32.810745 20.183625,32.785995 C20.942625,32.686995 21.619125,32.282745 22.072875,31.672245 C22.543125,31.061745 22.732875,30.302745 22.633875,29.543745 C22.534875,28.875495 22.221375,28.281495 21.734625,27.827745 L27.286875,20.188245 C28.161375,20.765745 29.200875,21.095745 30.314625,21.095745 C33.367125,21.095745 35.842125,18.620745 35.842125,15.568245 C35.842125,12.515745 33.367125,10.040745 30.314625,10.040745 Z"/>
</svg>

<svg xmlns="http://www.w3.org/2000/svg" viewBox="0 0 132 33">
	<path d="M111.746 11.57c.446.974.627 2.005.627 3.07.008 3.968.008 7.936 0 11.912 0 .1-.008.198-.025.33h-3.836v-.462c0-3.53.008-7.053-.016-10.584a7.143 7.143 0 0 0-.289-1.865c-.404-1.468-1.551-2.021-2.978-1.89-1.65.166-2.978 1.024-4.216 2.047-.099.09-.14.305-.14.47-.008 3.919-.008 7.838-.008 11.765v.511H97.02V9.137h3.506v2.244c.174-.14.306-.231.43-.322 1.451-1.106 3.002-2.013 4.825-2.285 2.418-.363 4.86.338 5.965 2.796zM49.75 23.632c.19-.091.38-.19.52-.264.346.916.684 1.815 1.056 2.813-.479.19-1.048.47-1.642.652-1.625.495-3.275.701-4.925.148-1.568-.528-2.401-1.674-2.665-3.267-.074-.412-.074-.833-.074-1.254-.009-5.651 0-11.294 0-16.945V5.02c1.278-.396 2.532-.784 3.852-1.196v.495c0 1.468.009 2.945 0 4.413-.008.297.083.396.388.388 1.502-.016 2.995-.008 4.488-.008h.47c-.04.148-.057.256-.09.363-.248.792-.52 1.592-.751 2.392-.083.273-.206.339-.47.339-1.188-.017-2.368-.009-3.548-.009h-.462c-.008.174-.025.322-.025.47 0 3.037 0 6.073.009 9.1 0 .38.05.768.14 1.13.181.793.718 1.197 1.526 1.23a4.733 4.733 0 0 0 2.203-.495zm27.546.08c.38.982 1.048 1.757 1.749 2.516.008.017.008.05.041.173-.635.182-1.27.405-1.914.528-1.155.231-2.335.372-3.506.149-1.881-.363-2.904-1.6-2.937-3.515-.017-1.196 0-2.392 0-3.58-.008-5.94 0-11.88-.017-17.82 0-.371.124-.52.462-.635.99-.339 1.972-.718 2.962-1.081.132-.05.256-.083.462-.149V22.012c0 .256.025.512.066.76.116.734.668 1.121 1.403 1.006.297-.05.585-.132.89-.173.116-.009.314.033.339.107zm49.943-6.333c0 1.576-.008 3.143 0 4.72.008.28-.09.47-.297.643-.957.792-2.013 1.377-3.284 1.452-1.79.099-3.052-.76-3.885-2.286-.751-1.344-.875-2.813-.751-4.314.107-1.246.412-2.418 1.171-3.44.95-1.304 2.26-1.98 3.837-2.187.94-.115 1.848-.016 2.763.149.33.066.454.198.454.544-.025 1.576-.008 3.152-.008 4.72zm3.87 3.572V.285c-1.222.437-2.36.875-3.524 1.279-.272.099-.354.23-.354.52.008 2.103.008 4.215.008 6.32v.502c-.173-.016-.264-.016-.363-.033-1.312-.23-2.624-.272-3.935-.066-2.607.405-4.744 1.61-6.254 3.795-1.105 1.576-1.592 3.35-1.65 5.256-.058 1.971.231 3.877 1.18 5.626 1.27 2.343 3.217 3.704 5.948 3.803 1.898.058 3.531-.635 4.958-1.864.108-.09.215-.173.355-.297.198.528.371.998.528 1.477.074.23.182.313.437.305 1.081-.008 2.178 0 3.267-.008.083 0 .165-.009.29-.025-.941-1.906-.892-3.919-.892-5.924zM63.63 22.23c0 .14-.057.314-.148.396-1.114.982-2.384 1.642-3.919 1.584-2.533-.09-3.135-2.31-2.54-3.869.32-.841 1.006-1.27 1.822-1.477a11.522 11.522 0 0 1 1.84-.28c.957-.074 1.922-.091 2.954-.132v1.798c0 .66.008 1.32-.009 1.98zm3.886-.38c-.008-2.21 0-4.421-.008-6.632 0-.503-.033-1.007-.083-1.51-.255-2.384-1.674-4.075-3.993-4.678-2.483-.643-4.941-.404-7.334.43-.734.255-1.435.618-2.17.932.479.915.916 1.74 1.362 2.607.173-.091.297-.149.42-.215 1.6-.808 3.284-1.23 5.099-1.04 1.427.149 2.434.974 2.714 2.319.107.478.083.982.116 1.468.016.231-.1.28-.297.28-.545.017-1.09.05-1.634.059-1.435.033-2.863.066-4.273.404-2.995.726-4.58 2.69-4.538 5.626.05 2.979 2.318 5.272 5.313 5.388 2.063.09 3.836-.553 5.37-1.906.092-.083.199-.149.314-.24.124.33.231.611.33.9.306.866.306.866 1.213.866h2.92c-.008-.074-.008-.115-.024-.148-.726-1.568-.817-3.226-.817-4.91zm15.362-5.674c-.297-2.195 1.526-4.422 3.68-4.48 1.146-.041 2.111.38 2.812 1.32.693.924.933 1.988.999 3.16h-7.491zm4.389-7.483c-3.028-.215-5.808 1.246-7.153 3.985-1.502 3.044-1.609 6.204-.479 9.372.94 2.623 2.822 4.29 5.544 4.941 2.327.553 4.612.372 6.84-.445.627-.231 1.212-.553 1.84-.842-.413-.948-.793-1.806-1.18-2.69-.149.075-.256.125-.355.182a9.106 9.106 0 0 1-4.587.999c-2.07-.091-3.787-1.304-4.505-3.243-.23-.627-.38-1.278-.338-1.971h11.393c.017-.1.033-.165.033-.223.033-1.427-.04-2.838-.396-4.232-.85-3.35-3.11-5.594-6.657-5.833zM22.18 29.602a2.383 2.383 0 0 1-.462 1.798c-.396.52-.957.858-1.6.949a2.49 2.49 0 0 1-1.807-.47 2.43 2.43 0 0 1-.47-3.4c.387-.52.957-.858 1.6-.94a2.386 2.386 0 0 1 1.799.462c.52.396.85.957.94 1.6zM4.822 4.463a2.45 2.45 0 0 1-1.609.94 2.448 2.448 0 0 1-1.806-.462C.35 4.134.127 2.607.937 1.543A2.423 2.423 0 0 1 2.882.57c.528 0 1.032.173 1.452.495.52.387.85.957.94 1.6a2.413 2.413 0 0 1-.453 1.799zm25.493 5.577a5.46 5.46 0 0 0-3.317 1.113l-6.971-8.547a.323.323 0 0 0 .066-.082 1.319 1.319 0 0 0-.256-1.856 1.337 1.337 0 0 0-1.864.255 1.346 1.346 0 0 0 .264 1.865 1.32 1.32 0 0 0 1.435.099l6.98 8.547a5.512 5.512 0 0 0-1.246 1.609l-19.817-9.1c.157-.429.207-.883.14-1.337A2.876 2.876 0 0 0 4.609.71 2.83 2.83 0 0 0 2.47.149 2.832 2.832 0 0 0 .58 1.271a2.879 2.879 0 0 0 .562 4.026c.503.38 1.105.586 1.724.586.14 0 .272-.009.404-.033A2.834 2.834 0 0 0 5.17 4.736a3.1 3.1 0 0 0 .247-.388l19.792 9.1a5.833 5.833 0 0 0-.42 1.906H7.973a1.754 1.754 0 0 0-.693-1.197 1.782 1.782 0 0 0-2.484.347 1.75 1.75 0 0 0 .347 2.475 1.778 1.778 0 0 0 2.491-.347c.19-.255.297-.536.339-.833h16.821c.025.726.198 1.411.479 2.038l-4.265 2.112a1.243 1.243 0 0 0-.776-.512 1.334 1.334 0 0 0-1.592.999 1.329 1.329 0 0 0 1.006 1.584c.71.165 1.42-.289 1.593-.999.05-.23.04-.462-.025-.676l4.257-2.104c.363.66.858 1.23 1.444 1.691l-5.536 7.623a2.851 2.851 0 0 0-2.005-.462 2.773 2.773 0 0 0-1.89 1.114c-.964 1.262-.7 3.077.562 4.026a2.827 2.827 0 0 0 1.724.586c.14 0 .272-.008.413-.033a2.803 2.803 0 0 0 1.889-1.114 2.856 2.856 0 0 0-.338-3.844l5.552-7.64a5.47 5.47 0 0 0 3.028.908 5.528 5.528 0 0 0 0-11.055z"/>
</svg>
